svg/u1f64d_1f3fb_200d_2642.svg

<svg viewBox="0 0 128 128" xmlns="http://www.w3.org/2000/svg">
  <g id="shirt">
    <linearGradient id="SVGID_1_" gradientTransform="matrix(1 0 0 -1 0 128)" gradientUnits="userSpaceOnUse" x1="64" x2="64" y1="33.8073" y2="5.927">
      <stop offset="2.200000e-03" stop-color="#00BFA5"/>
      <stop offset="0.4712" stop-color="#00B29A"/>
      <stop offset="1" stop-color="#009E89"/>
    </linearGradient>
    <path d="M80.74,88.51c-2.85-0.54-30.62-0.54-33.47,0C29.22,91.94,16,100.9,16,117.88V124h1.5H19h90 h1.5h1.5v-6.12C112,100.9,98.78,91.94,80.74,88.51z" fill="url(#SVGID_1_)"/>
  </g>
  <g id="neck">
    <path d="M54.92,93.85v9.98c0,4.51,4.33,8.17,9.08,8.17s9.08-3.66,9.08-8.17v-9.98H54.92z" fill="#EDC391"/>
  </g>
  <g id="ears">
    <path d="M91.33,58.43H36.67c-5.89,0-10.71,5.14-10.71,11.41s4.82,11.41,10.71,11.41h54.65 c5.89,0,10.71-5.14,10.71-11.41C102.04,63.57,97.22,58.43,91.33,58.43z" fill="#EDC391"/>
  </g>
  <path id="head" d="M64,19.07L64,19.07L64,19.07c-17.4,0-33.52,18.61-33.52,45.39 c0,26.64,16.61,39.81,33.52,39.81S97.52,91.1,97.52,64.46C97.52,37.68,81.4,19.07,64,19.07z" fill="#F9DDBD"/>
  <path id="nose" d="M67.81,78.06c-0.11-0.04-0.21-0.07-0.32-0.08H60.5c-0.11,0.01-0.21,0.04-0.32,0.08 c-0.63,0.26-0.98,0.91-0.68,1.61c0.3,0.7,1.69,2.66,4.49,2.66c2.8,0,4.2-1.96,4.49-2.66C68.79,78.97,68.45,78.31,67.81,78.06z" fill="#DBA689"/>
  <path id="mouth" d="M56.67,91.77c4.63-1.45,10.27-1.38,14.66,0c0.8,0.25,1.2-0.57,0.65-1.41 C71.2,89.18,68.31,86.9,64,86.9s-7.2,2.28-7.98,3.46C55.47,91.21,55.87,92.03,56.67,91.77z" fill="#444444"/>
  <g id="eyes">
    <path d="M43.33,68.26c0.01-0.52,0.1-1.02,0.22-1.5c0.97-0.13,2.01-0.33,3.15-0.67 c1.68-0.51,2.94-1.34,3.91-2.24c1.07,1.01,1.76,2.62,1.72,4.43c-0.06,3.06-2.13,5.54-4.62,5.53 C45.23,73.81,43.27,71.32,43.33,68.26z" fill="#312D2D"/>
    <path d="M84.67,68.26c-0.01-0.52-0.1-1.02-0.22-1.5c-0.97-0.13-2-0.33-3.15-0.67 c-1.68-0.51-2.94-1.34-3.91-2.24c-1.07,1.01-1.76,2.62-1.71,4.43c0.07,3.06,2.13,5.54,4.62,5.53 C82.77,73.81,84.73,71.32,84.67,68.26z" fill="#312D2D"/>
  </g>
  <g id="eyebrows">
    <path d="M55.39,58.29c-1.2-1.14-3.8-2.64-8.22-1.79s-6.39,3.22-7.16,4.74c-0.34,0.67-0.12,1.33,0.25,1.68 c0.34,0.33,1.23,0.52,2.09,0.03c0.86-0.49,2.5-1.78,5.49-2.37c3-0.55,4.94,0.05,5.9,0.19s1.74-0.37,1.95-0.81 C55.92,59.49,55.92,58.79,55.39,58.29z" fill="#454140"/>
    <path d="M88,61.26c-0.77-1.52-2.74-3.89-7.16-4.74c-4.43-0.85-7.02,0.65-8.22,1.79 c-0.53,0.51-0.53,1.21-0.3,1.67c0.22,0.44,0.99,0.95,1.95,0.81c0.97-0.14,2.91-0.74,5.9-0.19c2.99,0.6,4.62,1.88,5.49,2.37 c0.86,0.49,1.75,0.3,2.09-0.03C88.12,62.59,88.34,61.94,88,61.26z" fill="#454140"/>
  </g>
  <g id="hairGroup">
    <path id="hair_7_" d="M64.02,11.51L64.02,11.51c-0.01,0-0.01,0-0.02,0s-0.01,0-0.02,0v0 c-45.44,0.24-36.13,52.14-36.13,52.14s2.04,5.35,2.97,7.71c0.13,0.34,0.63,0.3,0.71-0.05c0.97-4.34,4.46-19.73,6.22-24.4 c1.04-2.76,3.9-4.36,6.79-3.83c4.45,0.81,11.55,1.81,19.37,1.81c0.03,0,0.06,0,0.08,0s0.06,0,0.08,0c7.82,0,14.92-1,19.37-1.81 c2.9-0.53,5.76,1.08,6.79,3.83c1.75,4.66,5.22,19.96,6.2,24.36c0.08,0.36,0.58,0.39,0.71,0.05l2.98-7.67 C100.15,63.65,109.46,11.75,64.02,11.51z" fill="#312D2D"/>
    <radialGradient id="hairHighlights_1_" cx="64.0005" cy="73.4217" gradientTransform="matrix(1 0 0 -1.1282 0 137.4114)" gradientUnits="userSpaceOnUse" r="38.0924">
      <stop offset="0.7945" stop-color="#454140" stop-opacity="0"/>
      <stop offset="1" stop-color="#454140"/>
    </radialGradient>
    <path id="hairHighlights" d="M100.15,63.65c0,0,9.31-51.9-36.13-52.14v0 c-0.01,0-0.01,0-0.02,0h0c-0.01,0-0.01,0-0.02,0l0,0c-0.71,0-1.4,0.02-2.08,0.05c-1.35,0.06-2.66,0.16-3.92,0.31 c-0.01,0-0.03,0-0.04,0c-0.09,0.01-0.17,0.03-0.26,0.04c-38.25,4.81-29.83,51.74-29.83,51.74l2.98,7.68 c0.13,0.34,0.62,0.31,0.7-0.05c0.98-4.39,4.46-19.71,6.22-24.37c1.04-2.76,3.9-4.36,6.79-3.83c4.45,0.81,11.55,1.81,19.37,1.81 c0.03,0,0.06,0,0.08,0s0.06,0,0.08,0c7.82,0,14.92-1,19.37-1.81c2.9-0.53,5.76,1.08,6.79,3.83c1.76,4.68,5.25,20.1,6.21,24.42 c0.08,0.36,0.57,0.39,0.7,0.05C98.1,69.02,100.15,63.65,100.15,63.65z" fill="url(#hairHighlights_1_)"/>
  </g>
</svg>

<svg viewBox="0 0 128 128" xmlns="http://www.w3.org/2000/svg">
  <defs>
    <linearGradient id="SVGID_1_" gradientTransform="matrix(1 0 0 -1 0 0)" gradientUnits="userSpaceOnUse" x1="64" x2="64" y1="-94.1927" y2="-122.073">
      <stop offset="2.200000e-03" stop-color="#00BFA5"/>
      <stop offset="0.4712" stop-color="#00B29A"/>
      <stop offset="1" stop-color="#009E89"/>
    </linearGradient>
    <radialGradient id="hairHighlights_1_" cx="64.0005" cy="-48.375322" gradientTransform="matrix(1 0 0 -1.1282 0 0)" gradientUnits="userSpaceOnUse" r="38.0924">
      <stop offset="0.7945" stop-color="#454140" stop-opacity="0"/>
      <stop offset="1" stop-color="#454140"/>
    </radialGradient>
  </defs>
  <path d="M80.74,88.51 C77.89,87.97 50.12,87.97 47.27,88.51 C29.22,91.94 16,100.9 16,117.88 L16,124 L17.5,124 L19,124 L109,124 L110.5,124 L112,124 L112,117.88 C112,100.9 98.78,91.94 80.74,88.51 Z" fill="url(#SVGID_1_)"/>
  <path d="M54.92,93.85 L54.92,103.83 C54.92,108.34 59.25,112 64,112 C68.75,112 73.08,108.34 73.08,103.83 L73.08,93.85 L54.92,93.85 Z" fill="#EDC391"/>
  <path d="M91.33,58.43 L36.67,58.43 C30.78,58.43 25.96,63.57 25.96,69.84 C25.96,76.11 30.78,81.25 36.67,81.25 L91.32,81.25 C97.21,81.25 102.03,76.11 102.03,69.84 C102.04,63.57 97.22,58.43 91.33,58.43 Z" fill="#EDC391"/>
  <path id="head" d="M64,19.07 L64,19.07 L64,19.07 C46.6,19.07 30.48,37.68 30.48,64.46 C30.48,91.1 47.09,104.27 64,104.27 C80.91,104.27 97.52,91.1 97.52,64.46 C97.52,37.68 81.4,19.07 64,19.07 Z" fill="#F9DDBD"/>
  <path id="nose" d="M67.81,78.06 C67.7,78.02 67.6,77.99 67.49,77.98 L60.5,77.98 C60.39,77.99 60.29,78.02 60.18,78.06 C59.55,78.32 59.2,78.97 59.5,79.67 C59.8,80.37 61.19,82.33 63.99,82.33 C66.79,82.33 68.19,80.37 68.48,79.67 C68.79,78.97 68.45,78.31 67.81,78.06 Z" fill="#DBA689"/>
  <path id="mouth" d="M56.67,91.77 C61.3,90.32 66.94,90.39 71.33,91.77 C72.13,92.02 72.53,91.2 71.98,90.36 C71.2,89.18 68.31,86.9 64,86.9 C59.69,86.9 56.8,89.18 56.02,90.36 C55.47,91.21 55.87,92.03 56.67,91.77 Z" fill="#444444"/>
  <path d="M43.33,68.26 C43.34,67.74 43.43,67.24 43.55,66.76 C44.52,66.63 45.56,66.43 46.7,66.09 C48.38,65.58 49.64,64.75 50.61,63.85 C51.68,64.86 52.37,66.47 52.33,68.28 C52.27,71.34 50.2,73.82 47.71,73.81 C45.23,73.81 43.27,71.32 43.33,68.26 Z" fill="#312D2D"/>
  <path d="M84.67,68.26 C84.66,67.74 84.57,67.24 84.45,66.76 C83.48,66.63 82.45,66.43 81.3,66.09 C79.62,65.58 78.36,64.75 77.39,63.85 C76.32,64.86 75.63,66.47 75.68,68.28 C75.75,71.34 77.81,73.82 80.3,73.81 C82.77,73.81 84.73,71.32 84.67,68.26 Z" fill="#312D2D"/>
  <path d="M55.39,58.29 C54.19,57.15 51.59,55.65 47.17,56.5 C42.75,57.35 40.78,59.72 40.01,61.24 C39.67,61.91 39.89,62.57 40.26,62.92 C40.6,63.25 41.49,63.44 42.35,62.95 C43.21,62.46 44.85,61.17 47.84,60.58 C50.84,60.03 52.78,60.63 53.74,60.77 C54.7,60.91 55.48,60.4 55.69,59.96 C55.92,59.49 55.92,58.79 55.39,58.29 Z" fill="#454140"/>
  <path d="M88,61.26 C87.23,59.74 85.26,57.37 80.84,56.52 C76.41,55.67 73.82,57.17 72.62,58.31 C72.09,58.82 72.09,59.52 72.32,59.98 C72.54,60.42 73.31,60.93 74.27,60.79 C75.24,60.65 77.18,60.05 80.17,60.6 C83.16,61.2 84.79,62.48 85.66,62.97 C86.52,63.46 87.41,63.27 87.75,62.94 C88.12,62.59 88.34,61.94 88,61.26 Z" fill="#454140"/>
  <path id="hair_7_" d="M64.02,11.51 L64.02,11.51 C64.01,11.51 64.01,11.51 64,11.51 C63.99,11.51 63.99,11.51 63.98,11.51 L63.98,11.51 C18.54,11.75 27.85,63.65 27.85,63.65 C27.85,63.65 29.89,69 30.82,71.36 C30.95,71.7 31.45,71.66 31.53,71.31 C32.5,66.97 35.99,51.58 37.75,46.91 C38.79,44.15 41.65,42.55 44.54,43.08 C48.99,43.89 56.09,44.89 63.91,44.89 C63.94,44.89 63.97,44.89 63.99,44.89 C64.01,44.89 64.05,44.89 64.07,44.89 C71.89,44.89 78.99,43.89 83.44,43.08 C86.34,42.55 89.2,44.16 90.23,46.91 C91.98,51.57 95.45,66.87 96.43,71.27 C96.51,71.63 97.01,71.66 97.14,71.32 L100.12,63.65 C100.15,63.65 109.46,11.75 64.02,11.51 Z" fill="#312D2D"/>
  <path id="hairHighlights" d="M100.15,63.65 C100.15,63.65 109.46,11.75 64.02,11.51 L64.02,11.51 C64.01,11.51 64.01,11.51 64,11.51 L64,11.51 C63.99,11.51 63.99,11.51 63.98,11.51 L63.98,11.51 C63.27,11.51 62.58,11.53 61.9,11.56 C60.55,11.62 59.24,11.72 57.98,11.87 C57.97,11.87 57.95,11.87 57.94,11.87 C57.85,11.88 57.77,11.9 57.68,11.91 C19.43,16.72 27.85,63.65 27.85,63.65 L30.83,71.33 C30.96,71.67 31.45,71.64 31.53,71.28 C32.51,66.89 35.99,51.57 37.75,46.91 C38.79,44.15 41.65,42.55 44.54,43.08 C48.99,43.89 56.09,44.89 63.91,44.89 C63.94,44.89 63.97,44.89 63.99,44.89 C64.01,44.89 64.05,44.89 64.07,44.89 C71.89,44.89 78.99,43.89 83.44,43.08 C86.34,42.55 89.2,44.16 90.23,46.91 C91.99,51.59 95.48,67.01 96.44,71.33 C96.52,71.69 97.01,71.72 97.14,71.38 C98.1,69.02 100.15,63.65 100.15,63.65 Z" fill="url(#hairHighlights_1_)"/>
</svg>
